!!!ONB: MCCC : IJH0444_02 : Extracted Monophonic Melody
!!!COM: Haydn, Joseph
!!!OPR: String Quartet in E-flat major
!!!OMV: 2
!!!SCT: Hob.III:27 ; Op.17 No.3
!!!ODT: 1771///
**kern
*thru
*k[b-e-a-]
*E-:
*clefG
*M3/4
4ee-
=1
8ee-
8dd
8cc
8b-
4b-
=2
2b-
4a-
=3
8a-
8g
8f
8e-
4f
=4
2f
4a-
=5
8a-
8g
8f
8e-
4e-
=6
2e-
4a-
=7
8a-
8g
8f
8e-
4cc
=8
4cc
8gg
8ee-
8dd
8b
=9
4cc
8gg
8ee-
8dd
8b
=10
4cc
4cc
4dd
=11
2.ee-[
=12
4ee-]
4dd
4cc
=13
4b-
8ff
8dd
8cc
8a
=14
4b-
8ff
8dd
8cc
8a
=15
4b-
4B-
4B-
=16
2B-
4bb-
=17
8bb-
8aa-
8gg
8ff
4ff
=18
2ff
4aa-
=19
8aa-
8gg
8ff
8ee-
4ee-
=20
2ee-
4dd-
=21
8dd-
8cc
8b-
8a-
4cc
=22
8cc
8b-
8a-
8g
4b-
=23
8b-
8a-
8g
8f
4f
=24
4f
8cc
8a-
8g
8e
=25
4f
8cc
8a-
8g
8e
=26
4f
4f
4g
=27
2.a-[
=28
4a-]
4g
4f
=29
4e-
8b-
8g
8f
8d
=30
4e-
8b-
8g
8f
8d
=31
4e-
4e-
4e-
=32
2e-
4eee-
=33
8eee-
8ddd
8ccc
8bb-
4bb-
=34
2bb-
4aaa-
=35
8aaa-
8ggg
8fff
8eee-
4eee-
=36
4eee-
4r
8g
8b-
=37
8cc
8b-
8a-
8b-
8f
8b-
=38
8g
8b-
8e-
8b-
8d
8b-
=39
8B-
8b-
8d
8b-
8f
8b-
=40
8g
8b-
8e-
8b-
8d
8b-
=41
8B-
8b-
8d
8b-
8f
8b-
=42
8g
8b-
8e-
8b-
8g
8b-
=43
8a-
8b-
8f
8b-
8e-
8b-
=44
8d
8aa-
8ff
8dd
8b-
8a-
=45
8g
8b-
8e-
8g
8B-
8A-
=46
4G
4r
8g
8b-
=47
8cc
8b-
8a-
8b-
8g
8dd-
=48
8cc
8ee-
8a-
8ee-
8cc
8ee-
=49
8b-
8ee-
8g
8ee-
8b-
8ee-
=50
8a-
8cc
8f
8a-
8g
8e-
=51
8d
8f
8B-
8a-
8g
8e-
=52
8d
8f
8B-
8a-
8g
8e-
=53
8d
8f
8g
8e-
8a
8e-
=54
8d
8f
8a
8b-
8g
8b-
=55
8cc
8b-
8a-
8b-
8f
8b-
=56
8g
8b-
8e-
8b-
8d
8b-
=57
8B-
8b-
8d
8b-
8f
8b-
=58
8g
8b-
8e-
8b-
8d
8b-
=59
8B-
8b-
8d
8b-
8f
8b-
=60
8g
8b-
8e-
8b-
8g
8b-
=61
8a-
8b-
8f
8b-
8e-
8b-
=62
8d
8aa-
8ff
8dd
8b-
8a-
=63
8g
8b-
8e-
8g
8B-
8A-
=64
4G
2r
==
*-
